icons/2_Variations/Remote Utilities bg.var.svg

<svg width="1024" height="1024" viewBox="0 0 1024 1024" fill="none" xmlns="http://www.w3.org/2000/svg">
<g clip-path="url(#clip0_3_239)">
<path d="M512 1024C794.77 1024 1024 794.77 1024 512C1024 229.23 794.77 0 512 0C229.23 0 0 229.23 0 512C0 794.77 229.23 1024 512 1024Z" fill="#9ABEFF"/>
<path d="M694.259 434.13L511.999 321.91V244L694.299 356.22L694.259 434.13ZM511.999 546.3L392.949 473L511.949 399.72V321.83L329.699 434.08V512L511.999 624.21L694.299 512V434.1L511.999 546.3ZM511.999 702.09L392.999 628.81L441.289 599.09L378.019 560.09L329.699 589.84V667.78L511.999 780L694.299 667.78V589.87L511.999 702.09Z" fill="white"/>
</g>
<defs>
<clipPath id="clip0_3_239">
<rect width="1024" height="1024" fill="white"/>
</clipPath>
</defs>
</svg>

<svg xmlns="http://www.w3.org/2000/svg" viewBox="0 0 1024 1024">
   <circle cx="512" cy="512" r="512" style="fill:#2c9adb"/>
   <path d="M694.26 434.13 512 321.91V244l182.3 112.22ZM512 546.3 392.95 473l119-73.28v-77.89L329.7 434.08V512L512 624.21 694.3 512v-77.9Zm0 155.79-119-73.28 48.29-29.72-63.27-39-48.32 29.75v77.94L512 780l182.3-112.22v-77.91Z" style="fill:#fff"/>
</svg>
